X:1
T:[ID 11-14a]
T:[ID 11-14a]
T:Bezeichnung standardisiert: Polonaise Pol 2do In dieser Quelle auch als: Polonoise
T:Urheber unbekannt Datum in der hier transkribierten schriftlichen Quelle: vermutlich um 1800
C:Urheber unbekannt
C:Datum in der hier transkribierten schriftlichen Quelle: vermutlich um 1800
L:1/8
M:3/4
K:D
V:1 treble 
V:1
 d>F E2 F2 | Ac/e/ d/F/E/G/ F2 | G2 g/f/e/d/ B/A/G/ | A2 f/e/d/c/ B/A/G/F/ | (Ge)(dE)(FG) | %5
 F/E/D/E/{E} D4 :: c>d ccfc | cB{B} A4 | B>c BB^gB | BA ^G4 | Ac/A/ c2 dF | E/d/c/B/{B} c4 | %12
 f2 f2 f2 | g2{f} e4 | f2 d2 d2 | e2{d} c4 | B F2 G2 A | Gg/f/ e/d/c/B/ A2 | F F2 F dF | G2{F} E4 | %20
 F D2 D FD | E2 c4 | d(F/D/) (A/F/)(d/A/) f>B | A/G/F/E/ F2 F2 :| %24

